X: 2
T: The Colliers'
R: reel
M: 4/4
L: 1/8
K: Dmix
FDFG A3B|cAdB cAGB|Add^c d2de|fde^c dcAG|FDFG A3B|cAdB cAGB|Add^c ABAG|1 EFGE FDDE:|2 EFGE FDD2||f2eg fde^c|Add^c Adde|f2eg fde^c|AGAB c3d|eaag efge|dfed cAGB|Add^c ABAG|1 EFGE FDD2:|2 EFGE FDDE||


Tune 2154	Setting 2154

